X:1
T:I Love to Tell the Story
T:I Love to Tell the Story
T:William Gustavus Fischer, 1869
T:Arabella Katherine Hankey, 1866
T:Public Domain Courtesy of the Cyber Hymnal™
T:Public Domain Courtesy of the Cyber Hymnal™
C:William Gustavus Fischer, 1869
Z:Public Domain
Z:Courtesy of the Cyber Hymnal™
%%score ( 1 2 ) ( 3 4 )
L:1/8
Q:1/4=110
M:4/4
K:Ab
V:1 treble 
V:2 treble 
V:3 bass 
V:4 bass 
V:1
 [CE]2 | [CA]3 [CE] [CE]2 [CA]2 | ([Ec]3 [DB]) [CA]2 [EA]2 | [FA]3 [DF] ([FB]A) [DF]2 | [CE]6 E2 | %5
w: 1.~I|love to tell the|sto- * ry of|un- seen things * a-|bove, Of|
w: 2.~I|love to tell the|sto- * ry; more|won- der- ful * it|seems Than|
w: 3.~I|love to tell the|sto- * ry; ’tis|plea- sant to * re-|peat What|
w: 4.~I|love to tell the|sto- * ry, for|those who know * it|best Seem|
 [GB]3 [^F=A] [GB]2 [Gc]2 | [EB]2 [EA]4 (Ac) | [Ae]3 [Ec] (cB) [EA]2 | [GB]6 [EB]2 | %9
w: Je- sus and His|glo- ry, of *|Je- sus and * His|love. I|
w: all the gold- en|fan- cies of *|all our gold- * en|dreams. I|
w: seems, each time I|tell it, more *|won- der- ful- * ly|sweet. I|
w: hun- ger- ing and|thirst- ing to *|hear it like * the|rest. And|
 [EB]3 [Ec] [Ed]2 [Ed]2 | [Ed]2 [Ec]4 [Ec]2 | [Ac]3 [GB] [FA]2 ([GB][FA]) | [=EG]6 [EG]2 | %13
w: love to tell the|sto- ry, be-|cause I know ’tis *|true; It|
w: love to tell the|sto- ry, it|did so much for *|me; And|
w: love to tell the|sto- ry, for|some have ne- ver *|heard The|
w: when, in scenes of|glo- ry, I|sing the new, new *|song, ’Twill|
 F3 [EG] [FA]2 [DF]2 | [DF]2 [CE]4 [EA]2 | [GB]3 A [Ac]3 [EB] | [EA]6 ||"^Refrain" [CE]2 | %18
w: sa- tis- fies my|long- ings as|no- thing else can|do.||
w: that is just the|rea- son I|tell it now to|thee.||
w: mes- sage of sal-|va- tion from|God’s own ho- ly|Word.||
w: be the old, old|sto- ry that|I have loved so|long.||
 E3 [EG] [EB]3 [Ec] | [EB]2 [EA]4 [EA]2 | [FA]3 [Fd] [Fd]2 [Ed]2 | [Ed]2 [Ec]4 [Ec]2 | %22
w: ||||
w: ||||
w: ||||
w: ||||
 [Ae]3 [Ec] ([Ec][DB]) A2 | [FB]2 [FA]4 [DF]2 | [CE]2 [EA]2 [GB]3 [EA] | [EA]6 |] %26
w: ||||
w: ||||
w: ||||
w: ||||
V:2
 x2 | x8 | x8 | x8 | x6 E2 | x8 | x6 E2 | x4 E2 x2 | x8 | x8 | x8 | x8 | x8 | F3 x5 | x8 | %15
 x3 A x4 | x6 || x2 | E3 x5 | x8 | x8 | x8 | x6 (CE) | x8 | x8 | x6 |] %26
V:3
 [A,,A,]2 | [A,,E,]3 [A,,A,] [A,,A,]2 A,2 | A,4 [A,,A,]2 [C,A,]2 | [D,A,]3 [D,A,] [D,A,]2 [D,A,]2 | %4
w: ~|~ ~ ~ ~|~ ~ ~|~ ~ ~ ~|
 [A,,A,]6 A,2 | [E,D]3 [E,C] [E,D]2 [E,E]2 | [A,,D]2 [A,,C]4 [A,C]2 | [A,C]3 [A,E] (ED) [A,C]2 | %8
w: ~ ~|~ ~ ~ ~|~ ~ ~|~ ~ ~ * ~|
 [E,E]6 [E,G,]2 | [E,G,]3 [E,A,] [E,B,]2 [E,B,]2 | [A,B,]2 A,4 A,2 | [F,A,]3 [F,B,] [F,C]2 [F,C]2 | %12
w: ~ ~|~ ~ ~ ~|~ ~ ~|~ ~ ~ ~|
 [C,C]6 [C,B,]2 | [D,A,]3 [D,A,] [D,A,]2 [D,A,]2 | [A,,A,]2 [A,,A,]4 [A,,C]2 | %15
w: ~ ~|~ ~ ~ ~|~ ~ ~|
 [E,D]3 [E,C] [E,E]3 [E,D] | [A,,C]6 || [A,,A,]2 | [E,G,]3 [E,B,] [E,D]3 [E,E] | %19
w: ~ ~ ~ ~|~|I|love to tell the|
 [A,,D]2 [A,,C]4 [C,A,]2 | [D,A,]3 [D,A,] [D,A,]2 [D,A,]2 | [A,,A,]2 [A,,A,]4 A,2 | %22
w: sto- ry, ’twill|be my theme in|glo- ry, To|
 [A,C]3 [A,,A,] ([A,,A,][B,,G,]) [C,A,]2 | [D,D]2 [D,D]4 [D,A,]2 | [E,A,]2 [E,C]2 [E,D]3 [A,,C] | %25
w: tell the old, * old|sto- ry of|Je- sus and His|
 [A,,C]6 |] %26
w: love.|
V:4
 x2 | x6 (C,E,) | A,4 x4 | x8 | x6 (A,,C,) | x8 | x8 | x4 A,2 x2 | x8 | x8 | x2 A,4 A,2 | x8 | x8 | %13
 x8 | x8 | x8 | x6 || x2 | x8 | x8 | x8 | x8 | x8 | x8 | x8 | x6 |] %26

